themes/MaterialDesignP/images/sub_panel/AOS_Contracts.svg

<?xml version="1.0" encoding="UTF-8" standalone="no"?>
<svg width="30px" height="30px" viewBox="0 0 30 30" version="1.1" xmlns="http://www.w3.org/2000/svg" xmlns:xlink="http://www.w3.org/1999/xlink">
    <!-- Generator: Sketch 3.8.3 (29802) - http://www.bohemiancoding.com/sketch -->
    <title>acc_contracts</title>
    <desc>Created with Sketch.</desc>
    <defs></defs>
    <g id="Page-1" stroke="none" stroke-width="1" fill="none" fill-rule="evenodd">
        <g id="acc_contracts" fill="#FFFFFF">
            <g id="Page-1" transform="translate(3.000000, 6.000000)">
                <polygon id="Fill-1" points="0 18.9598156 23.9709664 18.9598156 23.9709664 17.5859219 0 17.5859219"></polygon>
                <path d="M6.20849799,1.85939523 C5.9927396,1.85939523 5.75302148,1.93300477 5.56126309,2.08018265 C5.2496255,2.30101128 4.96198792,2.669059 4.67431007,3.20876616 C3.66751812,5.14701345 3.69151812,7.64949067 4.7222698,9.58769675 C4.79418926,9.73491584 4.89006846,9.88213492 5.00990738,10.029354 C5.22566577,9.68587028 5.39346443,9.36690933 5.53730336,9.12155792 C6.40025638,7.55135835 6.95157181,5.80941692 7.09541074,4.04295271 C7.14337047,3.60133666 7.1673302,3.08611106 7.02349128,2.64449501 C6.92761208,2.30101128 6.71189396,2.03113709 6.47217584,1.90844078 C6.40025638,1.883918 6.30437718,1.85939523 6.20849799,1.85939523 L6.20849799,1.85939523 Z M2.56488725,13.9793345 C1.96561208,13.9793345 1.41425638,13.7585471 0.982820134,13.3414538 C0.623222819,12.9980113 0.40746443,12.5318312 0.287665772,11.8939505 L0.119867114,10.9616317 L1.91765235,10.6426707 L2.08545101,11.5749896 C2.13341074,11.820341 2.2053302,11.9429961 2.22928993,11.9675189 C2.32516913,12.0411696 2.44504832,12.0902152 2.58884698,12.0902152 C3.02032349,12.0656924 3.42784027,11.820341 3.81139732,11.50138 C3.52371946,11.1824603 3.28400134,10.8389766 3.09224295,10.4709289 C1.74985369,7.96845163 1.72593423,4.85257527 3.04432349,2.32557527 C3.4758,1.5159115 3.95519597,0.927076356 4.53051141,0.534547072 C5.3455047,-0.0297240781 6.35229664,-0.15242039 7.1673302,0.191063341 C7.9104443,0.510024295 8.50967919,1.19699176 8.77335705,2.10474664 C8.98911544,2.84080087 8.9651557,3.60133666 8.91723624,4.21469458 C8.74943758,6.2265102 8.12616242,8.26284859 7.11937047,10.0538768 C6.95157181,10.3728377 6.71185369,10.765367 6.47217584,11.1824603 C6.97557181,11.3787249 7.50292752,11.4032477 8.00632349,11.1578963 C8.43775973,10.9616317 8.74943758,10.5936252 9.15691409,10.0538768 C9.58843087,9.51412842 9.82810872,9.0234256 9.94794765,8.48367722 C10.0438268,7.96845163 10.5232631,7.64949067 11.0266591,7.74762299 C11.3862161,7.82123254 11.673894,8.1156295 11.7458134,8.48367722 C11.8896121,8.85168373 12.6566859,10.323751 12.8484443,10.5936252 L12.9203638,10.7162803 C13.3518403,11.3296382 13.5915584,11.6240764 13.8552362,11.5504668 C14.2866725,11.4523345 14.6702295,10.9616317 15.0537866,10.3973605 C15.4612631,9.80852538 15.7729409,9.12155792 15.9646591,8.43459046 C16.0605383,8.06658395 16.3721758,7.77218698 16.7557329,7.74762299 C17.1392497,7.69857744 17.4988067,7.91936486 17.6666054,8.26284859 L18.1700013,9.29329978 C18.6254376,10.2256187 19.0329946,10.9616317 19.6322295,11.3296382 C20.0157866,11.5749896 20.5191826,11.6485991 20.9506591,11.525944 C21.2382966,11.4523345 21.3341758,11.3051154 21.6937732,10.6917575 L22.1491691,9.88213492 L23.7312765,10.8389766 L23.2758403,11.6485991 C22.8922832,12.3110026 22.460847,13.0715796 21.430055,13.3414538 C20.5191826,13.5868052 19.5363906,13.4396273 18.7213168,12.9488833 C17.8823235,12.4582217 17.3550081,11.6485991 16.9474913,10.9125861 C16.8276523,11.1333735 16.7077732,11.3296382 16.5639342,11.525944 C16.108498,12.1638247 15.4133436,13.1451892 14.262753,13.4150633 C12.8004846,13.7585471 11.9615315,12.5563952 11.4581356,11.8694278 L11.3382966,11.6731219 C11.3382966,11.6731219 11.0985785,11.3051154 10.8349007,10.8389766 C10.7390215,10.9616317 10.643102,11.084328 10.5472228,11.2315059 C10.1157463,11.7712542 9.58843087,12.4336989 8.74943758,12.8507922 C7.59876644,13.3905406 6.35229664,13.2433215 5.27358523,12.6790503 C4.57847114,13.3905406 3.73947785,13.9302889 2.68472617,13.9793345 L2.56488725,13.9793345 Z" id="Fill-2"></path>
            </g>
        </g>
    </g>
</svg>

<?xml version="1.0" encoding="utf-8"?>
<!-- Generator: Adobe Illustrator 15.0.0, SVG Export Plug-In . SVG Version: 6.00 Build 0)  -->
<!DOCTYPE svg PUBLIC "-//W3C//DTD SVG 1.1//EN" "http://www.w3.org/Graphics/SVG/1.1/DTD/svg11.dtd">
<svg version="1.1" id="图层_1" xmlns="http://www.w3.org/2000/svg" xmlns:xlink="http://www.w3.org/1999/xlink" x="0px" y="0px"
	 width="30px" height="30px" viewBox="0 0 30 30" enable-background="new 0 0 30 30" xml:space="preserve">
<title>acc_contracts</title>
<desc>Created with Sketch.</desc>
<g id="Page-1_1_">
	<g id="acc_contracts">
		<g id="Page-1" transform="translate(3.000000, 6.000000)">
			<polygon id="Fill-1" fill="#999999" points="0,18.96 23.971,18.96 23.971,17.586 0,17.586 			"/>
			<path id="Fill-2" fill="#999999" d="M6.208,1.859c-0.216,0-0.456,0.074-0.647,0.221C5.25,2.301,4.962,2.669,4.674,3.209
				c-1.007,1.938-0.983,4.44,0.048,6.379C4.794,9.734,4.89,9.883,5.01,10.029c0.216-0.344,0.384-0.663,0.527-0.908
				C6.4,7.551,6.952,5.81,7.095,4.043c0.048-0.441,0.072-0.957-0.072-1.398C6.928,2.301,6.712,2.031,6.472,1.908
				C6.4,1.884,6.304,1.859,6.208,1.859L6.208,1.859z M2.565,13.979c-0.599,0-1.151-0.221-1.582-0.638
				c-0.36-0.344-0.576-0.811-0.695-1.447L0.12,10.961l1.798-0.318l0.168,0.933c0.048,0.245,0.12,0.368,0.144,0.393
				c0.096,0.073,0.215,0.122,0.359,0.122c0.432-0.024,0.839-0.27,1.223-0.588c-0.288-0.319-0.527-0.663-0.719-1.031
				C1.75,7.968,1.726,4.853,3.044,2.326c0.431-0.81,0.911-1.398,1.486-1.791C5.346-0.03,6.353-0.152,7.167,0.191
				C7.911,0.51,8.51,1.197,8.773,2.104c0.216,0.736,0.192,1.497,0.144,2.11C8.75,6.227,8.126,8.263,7.119,10.054
				c-0.167,0.319-0.407,0.712-0.647,1.129c0.503,0.196,1.031,0.221,1.534-0.024c0.432-0.197,0.743-0.564,1.15-1.104
				c0.432-0.54,0.671-1.03,0.791-1.57c0.096-0.516,0.576-0.834,1.079-0.736c0.359,0.074,0.647,0.368,0.719,0.736
				c0.144,0.368,0.911,1.84,1.103,2.11l0.071,0.123c0.432,0.613,0.672,0.907,0.936,0.834c0.432-0.099,0.814-0.59,1.198-1.153
				c0.407-0.589,0.72-1.276,0.911-1.963c0.096-0.368,0.407-0.662,0.791-0.687c0.383-0.049,0.743,0.172,0.91,0.515l0.504,1.031
				c0.455,0.932,0.863,1.667,1.463,2.037c0.383,0.245,0.887,0.318,1.318,0.195c0.287-0.073,0.383-0.221,0.742-0.834l0.456-0.809
				l1.582,0.956l-0.456,0.81c-0.383,0.662-0.814,1.424-1.846,1.693c-0.91,0.245-1.893,0.098-2.709-0.393
				c-0.838-0.491-1.365-1.301-1.773-2.037c-0.119,0.221-0.239,0.418-0.383,0.613c-0.456,0.639-1.15,1.619-2.302,1.89
				c-1.462,0.344-2.301-0.858-2.805-1.546l-0.12-0.196c0,0-0.24-0.368-0.503-0.834c-0.096,0.122-0.192,0.245-0.288,0.393
				c-0.432,0.54-0.959,1.202-1.798,1.619c-1.151,0.54-2.397,0.393-3.476-0.171c-0.695,0.711-1.534,1.25-2.589,1.3H2.565z"/>
		</g>
	</g>
</g>
</svg>
